!!!!SEGMENT: pl-cz--iii-573--008_rygall-ignacy--rorate-caeli-llaskils-pellna-palnskiej.krn
!!!COM: Rygall, Ignacy
!!!COM-rismid: pe30110281
!!!CDT: <1750->1799
!!!CNT:
!!!OPR: Rorate caeli
!!!OTL: Łaskiś pełna Pańskiej
!!!OMV: 008
!!!PDT:
!!!AGN: Sacred
!!!SMS-siglum: PL-CZ
!!!SMS-shelfmark: III-573
!!!SMS-shelfwork: 001-008 M
!!!SMS-variant:
!!!SMS-altvar:
!!!NIFC-rismid: 300001133
!!!URL-scan: http://repozytorium.nifc.pl/skany/pl-cz-nut--iii-573
!!!ONB-nifc: UWAGA: części Rorate caeli: Intonatio, Benedixisti Domine, Mittit ad virginem,
**kern	**kern	**kern	**kern	**kern	**kern	**kern	**kern	**text	**kern	**text	**kern	**text	**kern	**kern	**kern	**kern	**kern
*part15	*part14	*part13	*part12	*part11	*part10	*part9	*part8	*part8	*part7	*part7	*part6	*part6	*part5	*part4	*part3	*part2	*part1
*staff15	*staff14	*staff13	*staff12	*staff11	*staff10	*staff9	*staff8	*staff8	*staff7	*staff7	*staff6	*staff6	*staff5	*staff4	*staff3	*staff2	*staff1
*Iorgan	*Iempty	*Iempty	*Iempty	*Ivioln	*Ivioln	*Iempty	*Itenor	*	*Ialto	*	*Isoprn	*	*Iempty	*Icor	*Iempty	*Ioboe	*Ioboe
*I"Organo	*I"Viola 2da.	*I"Alto Viola Prima.	*I"Violino Graſso	*I"Violino Secondo.	*I"Violino Primo.	*I"Baſso	*I"Tenore	*	*I"Alto.	*	*I"Soprano	*	*I"Tympano in D: A.	*I"Corno 2do in G.	*I"Corno 1mo in G.	*I"Oboe	*I"Oboe 1mo
*I'Organo	*I'Viola 2da.	*I'Alto Viola Prima.	*I'Violino Graſso	*I'Violino Secondo.	*I'Violino Primo.	*I'B.	*I'T.	*	*I'A.	*	*I'S.	*	*I'Tympano in D: A.	*I'Corno 2do in G.	*I'Corno 1mo in G.	*I'Ob.	*I'Oboe 1mo
*clefF4	*clefC3	*clefC3	*clefC3	*clefG2	*clefG2	*clefF4	*clefC4	*	*clefC3	*	*clefC1	*	*clefF4	*clefG2	*clefG2	*clefG2	*clefG2
*	*	*	*	*	*	*	*	*	*	*	*	*	*	*ITrd3c5	*ITrd3c5	*	*
*k[f#]	*k[f#]	*k[f#]	*k[f#]	*k[f#]	*k[f#]	*k[f#]	*k[f#]	*	*k[f#]	*	*k[f#]	*	*k[f#]	*k[f#]	*k[f#]	*k[f#]	*k[f#]
*G:	*G:	*G:	*G:	*G:	*G:	*G:	*G:	*	*G:	*	*G:	*	*G:	*G:	*G:	*G:	*G:
*M3/4	*M3/4	*M3/4	*M3/4	*M3/4	*M3/4	*M3/4	*M3/4	*	*M3/4	*	*M3/4	*	*M3/4	*M3/4	*M3/4	*M3/4	*M3/4
=1	=1	=1	=1	=1	=1	=1	=1	=1	=1	=1	=1	=1	=1	=1	=1	=1	=1
*	*2\right	*2\right	*	*	*	*	*	*	*2\right	*	*2\right	*	*	*2\right	*2\right	*	*
!	!	!	!LO:TX:t=P:problem:brak głosu w części	!LO:TX:b:t=Zdrovas \nTace	!LO:TX:b:t=Zdrovas \nTace	!LO:TX:b:t=Zdrovas\n Tace	!LO:TX:b:t=Zdrovas\n Tace	!	!	!	!	!	!LO:TX:t=P:problem:brak głosu w części	!	!	!	!
4G\	2b\	2dd\	2.ryy	2.ryy	2.ryy	2.ryy	2.ryy	.	2b\	Las-	2dd\	Las-	2.ryy	2b\	2dd\	0.r	0.r
4B\	.	.	.	.	.	.	.	.	.	.	.	.	.	.	.	.	.
4G\	4g\	4b\	.	.	.	.	.	.	4g\	-kis	4b\	-kis	.	4g\	4b\	.	.
=2	=2	=2	=2	=2	=2	=2	=2	=2	=2	=2	=2	=2	=2	=2	=2	=2	=2
4F#\	2d\	2a\	2.ryy	2.ryy	2.ryy	2.ryy	2.ryy	.	4.f#\	pel-	4.a\	pel-	2.ryy	2d/	2a\	.	.
4D\	.	.	.	.	.	.	.	.	.	.	.	.	.	.	.	.	.
.	.	.	.	.	.	.	.	.	8a\	.	8cc\	.	.	.	.	.	.
!	!	!	!	!	!	!	!	!	!LO:LB:g=original	!	!	!	!	!	!	!	!
4G\	4g\	4b\	.	.	.	.	.	.	8g\L	na	8b\L	na	.	4g\	4b\	.	.
.	.	.	.	.	.	.	.	.	8cc\J	.	8ee\J	.	.	.	.	.	.
=3	=3	=3	=3	=3	=3	=3	=3	=3	=3	=3	=3	=3	=3	=3	=3	=3	=3
4A\	4b\	4dd\	2.ryy	2.ryy	2.ryy	2.ryy	2.ryy	.	2b\	Pans-	2dd\	Pans-	2.ryy	4b\	4dd\	.	.
4F#\	4a\	4cc\	.	.	.	.	.	.	.	.	.	.	.	4a\	4cc\	.	.
4D\	4d\	4a\	.	.	.	.	.	.	4a\	.	4cc\	.	.	4d\	4a\	.	.
=4	=4	=4	=4	=4	=4	=4	=4	=4	=4	=4	=4	=4	=4	=4	=4	=4	=4
4G\	4g\	4b\	2.ryy	2.ryy	2.ryy	2.ryy	2.ryy	.	2g\	-ky	2b\	-kiey	2.ryy	4g\	4b\	.	.
4A\	8g\L	8b\L	.	.	.	.	.	.	.	.	.	.	.	8g\L	8b\L	.	.
.	8g\J	8b\J	.	.	.	.	.	.	.	.	.	.	.	8g\J	8b\J	.	.
4G\	4g\	4b\	.	.	.	.	.	.	4r	.	4r	.	.	4g\	4b\	.	.
=5	=5	=5	=5	=5	=5	=5	=5	=5	=5	=5	=5	=5	=5	=5	=5	=5	=5
*	*	*	*	*	*	*	*	*	*	*	*	*	*	*	*	*2\right	*2\right
!	!LO:TX:a:t=4	!	!	!	!	!	!	!	!	!	!	!	!	!LO:TX:a:t=4	!LO:TX:a:t=4	!	!
4G\	0.r	0.r	2.ryy	2.ryy	2.ryy	2.ryy	2.ryy	.	2g\	czys-	2b\	czys-	2.ryy	0.r	0.r	2gg\	2bb\
4G\	.	.	.	.	.	.	.	.	.	.	.	.	.	.	.	.	.
4E\	.	.	.	.	.	.	.	.	4e\	-tos-	4cc#X\	-tos-	.	.	.	4ee\	4gg\
=6	=6	=6	=6	=6	=6	=6	=6	=6	=6	=6	=6	=6	=6	=6	=6	=6	=6
4F#\	.	.	2.ryy	2.ryy	2.ryy	2.ryy	2.ryy	.	2f#\	-cy	2dd\	-ci	2.ryy	.	.	2dd\	2ff#\
4D\	.	.	.	.	.	.	.	.	.	.	.	.	.	.	.	.	.
4F#\	.	.	.	.	.	.	.	.	4r	.	4r	.	.	.	.	4ff#\	4aa\
=7	=7	=7	=7	=7	=7	=7	=7	=7	=7	=7	=7	=7	=7	=7	=7	=7	=7
4G\	.	.	2.ryy	2.ryy	2.ryy	2.ryy	2.ryy	.	4g\	A-	4ee\	A-	2.ryy	.	.	8b/L	8gg\L
.	.	.	.	.	.	.	.	.	.	.	.	.	.	.	.	8g/J	8ee\J
4A\	.	.	.	.	.	.	.	.	4f#\	-niels-	4dd\	-nyels-	.	.	.	4f#/	4dd\
4AA/	.	.	.	.	.	.	.	.	4e\	.	4cc#X\	.	.	.	.	4g/	4cc#X\
=8	=8	=8	=8	=8	=8	=8	=8	=8	=8	=8	=8	=8	=8	=8	=8	=8	=8
4D\	.	.	2.ryy	2.ryy	2.ryy	2.ryy	2.ryy	.	2f#\	-ky	2dd\	-ky	2.ryy	.	.	2f#/	2dd\
4DD/	.	.	.	.	.	.	.	.	.	.	.	.	.	.	.	.	.
4D\	.	.	.	.	.	.	.	.	4r	.	4r	.	.	.	.	4r	4r
!	!	!	!	!	!	!	!	!	!LO:PB:g=original	!	!LO:LB:g=original	!	!	!	!	!	!
=9	=9	=9	=9	=9	=9	=9	=9	=9	=9	=9	=9	=9	=9	=9	=9	=9	=9
4B\	4b\	2dd\	2.ryy	2.ryy	2.ryy	2.ryy	2.ryy	.	2b\	Pan-	4dd\	Pan-	2.ryy	4b\	2dd\	0.r	0.r
4G\	4g\	.	.	.	.	.	.	.	.	.	4gg\	.	.	4g\	.	.	.
4B\	4b\	4dd\	.	.	.	.	.	.	4b\	-nas	4ffn\	-na	.	4b\	4dd\	.	.
=10	=10	=10	=10	=10	=10	=10	=10	=10	=10	=10	=10	=10	=10	=10	=10	=10	=10
4c\	4cc\	2ee\	2.ryy	2.ryy	2.ryy	2.ryy	2.ryy	.	2cc\	nad	2ee\	nad	2.ryy	4cc\	2ee\	.	.
4C/	4g\	.	.	.	.	.	.	.	.	.	.	.	.	4g\	.	.	.
4B\	4b\	4dd\	.	.	.	.	.	.	4b\	Pan-	4dd\	Pan-	.	4b\	4dd\	.	.
!LO:PB:g=original	!	!	!	!	!	!	!	!	!	!	!	!	!	!	!	!	!
=11	=11	=11	=11	=11	=11	=11	=11	=11	=11	=11	=11	=11	=11	=11	=11	=11	=11
4A\	4b\	4dd\	2.ryy	2.ryy	2.ryy	2.ryy	2.ryy	.	4b\	-na-	4dd\	-na-	2.ryy	4b\	4dd\	.	.
4F#\	4a\	4cc\	.	.	.	.	.	.	4a\	.	4cc\	.	.	4a\	4cc\	.	.
4G\	4g\	4b\	.	.	.	.	.	.	4g\	.	4b\	.	.	4g\	4b\	.	.
=12	=12	=12	=12	=12	=12	=12	=12	=12	=12	=12	=12	=12	=12	=12	=12	=12	=12
4D\	4d\	4a\	2.ryy	2.ryy	2.ryy	2.ryy	2.ryy	.	2f#\	-mi	2a\	-mi	2.ryy	4d/	4a\	.	.
4AA/	4d\	4a\	.	.	.	.	.	.	.	.	.	.	.	4d/	4a\	.	.
4DD/	4d\	4a\	.	.	.	.	.	.	4r	.	4r	.	.	4d/	4a\	.	.
=13	=13	=13	=13	=13	=13	=13	=13	=13	=13	=13	=13	=13	=13	=13	=13	=13	=13
4F#\	2d\	2a\	2.ryy	2.ryy	2.ryy	2.ryy	2.ryy	.	2f#\	Swię-	2a\	swię-	2.ryy	2d/	2a\	0.r	0.r
4D\	.	.	.	.	.	.	.	.	.	.	.	.	.	.	.	.	.
4G\	4g\	4b\	.	.	.	.	.	.	4g\	-ta	4b\	.	.	4g\	4b\	.	.
!	!LO:LB:g=original	!	!	!	!	!	!	!	!	!	!	!	!	!	!	!	!
=14	=14	=14	=14	=14	=14	=14	=14	=14	=14	=14	=14	=14	=14	=14	=14	=14	=14
4B\	4a\	2cc\	2.ryy	2.ryy	2.ryy	2.ryy	2.ryy	.	2a\	nad	2cc\	.	2.ryy	4a\	2cc\	.	.
4D\	4d\	.	.	.	.	.	.	.	.	.	.	.	.	4d/	.	.	.
4G\	4g\	4b\	.	.	.	.	.	.	4g\	Swię-	4b\	-ta	.	4g\	4b\	.	.
!	!	!	!	!	!	!	!	!	!LO:LB:g=original	!	!	!	!	!LO:LB:g=original	!	!	!
=15	=15	=15	=15	=15	=15	=15	=15	=15	=15	=15	=15	=15	=15	=15	=15	=15	=15
4c\	8cc\L	8ee\L	2.ryy	2.ryy	2.ryy	2.ryy	2.ryy	.	8cc\L	-te-	8ee\L	nad	2.ryy	8cc\L	8ee\L	.	.
.	8b\J	8dd\J	.	.	.	.	.	.	8b\J	.	8dd\J	.	.	8b\J	8dd\J	.	.
4A\	4a\	4cc\	.	.	.	.	.	.	4a\	.	4cc\	Swię-	.	4a\	4cc\	.	.
4c#X\	4g\	4b\	.	.	.	.	.	.	4g\	.	4b\	-ta-	.	4g\	4b\	.	.
!	!	!LO:LB:g=original	!	!	!	!	!	!	!	!	!	!	!	!	!	!	!
=16	=16	=16	=16	=16	=16	=16	=16	=16	=16	=16	=16	=16	=16	=16	=16	=16	=16
4d\	4d\	4a\	2.ryy	2.ryy	2.ryy	2.ryy	2.ryy	.	2f#\	-mi	2a\	-mi	2.ryy	4d/	4a\	.	.
4A\	8d\L	8a\L	.	.	.	.	.	.	.	.	.	.	.	8d/L	8a\L	.	.
.	8d\J	8a\J	.	.	.	.	.	.	.	.	.	.	.	8d/J	8a\J	.	.
4D\	4d\	4a\	.	.	.	.	.	.	4r	.	4r	.	.	4d/	4a\	.	.
=17	=17	=17	=17	=17	=17	=17	=17	=17	=17	=17	=17	=17	=17	=17	=17	=17	=17
!	!	!	!	!	!	!	!	!	!	!	!	!	!	!LO:TX:a:t=2	!LO:TX:a:t=2	!	!
4F#\	1.r	1.r	2.ryy	2.ryy	2.ryy	2.ryy	2.ryy	.	2a\	o	2cc\	o	2.ryy	1.r	1.r	2g\	2cc\
4F#\	.	.	.	.	.	.	.	.	.	.	.	.	.	.	.	.	.
4G\	.	.	.	.	.	.	.	.	4g\	Nay-	4b\	Nay-	.	.	.	4g\	4b\
=18	=18	=18	=18	=18	=18	=18	=18	=18	=18	=18	=18	=18	=18	=18	=18	=18	=18
4c\	.	.	2.ryy	2.ryy	2.ryy	2.ryy	2.ryy	.	2cc\	-swięt-	2ee\	-swięt-	2.ryy	.	.	2cc\	2ee\
4c\	.	.	.	.	.	.	.	.	.	.	.	.	.	.	.	.	.
4B\	.	.	.	.	.	.	.	.	4b\	-sza	4dd\	-sza	.	.	.	4b\	4dd\
!	!	!	!	!	!	!	!	!	!	!	!LO:PB:g=original	!	!	!	!	!	!
=19	=19	=19	=19	=19	=19	=19	=19	=19	=19	=19	=19	=19	=19	=19	=19	=19	=19
4c\	4a\	4cc\	2.ryy	2.ryy	2.ryy	2.ryy	2.ryy	.	8b\L	Ma-	4cc\	Ma-	2.ryy	4a\	4cc\	4cc\	4aa\
.	.	.	.	.	.	.	.	.	8a\J	.	.	.	.	.	.	.	.
4d\	4g\	4b\	.	.	.	.	.	.	4g\	.	4b\	.	.	4g\	4b\	4b\	4gg\
4C\	4d\	4a\	.	.	.	.	.	.	4d\	-ri-	4a\	-ri-	.	4d\	4a\	4a\	4ff#\
!LO:LB:g=original	!	!	!	!	!	!	!	!	!	!	!	!	!	!	!LO:LB:g=original	!LO:LB:g=original	!LO:LB:g=original
=20	=20	=20	=20	=20	=20	=20	=20	=20	=20	=20	=20	=20	=20	=20	=20	=20	=20
!	!	!	!	!	!	!	!	!	!	!	!	!	!	!	!	!LO:TX:b:t=|:problem	!LO:TX:b:t=|:problem
4G\	4B/	4g\	2.ryy	2.ryy	2.ryy	2.ryy	2.ryy	.	2B/	-a	2g\	-a	2.ryy	4B/	4g\	8g/L	8g/L
!	!	!	!	!	!	!	!	!	!	!	!	!	!	!	!	!LO:TX:b:t=|:problem	!LO:TX:b:t=|:problem
.	.	.	.	.	.	.	.	.	.	.	.	.	.	.	.	16f#/L	16a/L
!	!	!	!	!	!	!	!	!	!	!	!	!	!	!	!	!LO:TX:b:t=|:problem	!LO:TX:b:t=|:problem
.	.	.	.	.	.	.	.	.	.	.	.	.	.	.	.	16g/JJ	16b/JJ
!	!	!	!	!	!	!	!	!	!	!	!	!	!	!	!	!LO:TX:b:t=|:problem	!LO:TX:a:t=|:problem
4r	4r	4r	.	.	.	.	.	.	.	.	.	.	.	4r	4r	16a/LL	16cc\LL
!	!	!	!	!	!	!	!	!	!	!	!	!	!	!	!	!LO:TX:b:t=|:problem	!LO:TX:a:t=|:problem
.	.	.	.	.	.	.	.	.	.	.	.	.	.	.	.	16b/	16dd\
!	!	!	!	!	!	!	!	!	!	!	!	!	!	!	!	!LO:TX:b:t=|:problem	!LO:TX:a:t=|:problem
.	.	.	.	.	.	.	.	.	.	.	.	.	.	.	.	16cc/	16ee\
!	!	!	!	!	!	!	!	!	!	!	!	!	!	!	!	!LO:TX:b:t=|:problem	!LO:TX:a:t=|:problem
.	.	.	.	.	.	.	.	.	.	.	.	.	.	.	.	16a/JJ	16ff#\JJ
!	!	!	!	!	!	!	!	!	!	!	!	!	!	!	!	!LO:TX:b:t=|:problem	!LO:TX:a:t=|:problem
4r	4r	4r	.	.	.	.	.	.	4r	.	4r	.	.	4r	4r	4b/	4gg\
=21	=21	=21	=21	=21	=21	=21	=21	=21	=21	=21	=21	=21	=21	=21	=21	=21	=21
4C\	4a\	4cc\	2.ryy	2.ryy	2.ryy	2.ryy	2.ryy	.	4a\	Modl	4cc\	modl	2.ryy	4a\	4cc\	4cc\	4aa\
4D\	4g\	4b\	.	.	.	.	.	.	4g\	.	4b\	.	.	4g\	4b\	4b\	4gg\
4DD/	4d\	4a\	.	.	.	.	.	.	4f#\	sie	4a\	się	.	4d\	4a\	4a\	4ff#\
!	!	!	!	!	!	!	!	!	!LO:LB:g=original	!	!	!	!	!	!	!	!
=22	=22	=22	=22	=22	=22	=22	=22	=22	=22	=22	=22	=22	=22	=22	=22	=22	=22
!	!	!	!	!	!	!	!	!	!	!	!	!	!	!	!	!LO:TX:a:t=|:problem	!LO:TX:a:t=|:problem
4GG/	4B/	4g\	2.ryy	2.ryy	2.ryy	2.ryy	2.ryy	.	4g\	dzis	2g\	dziś	2.ryy	4B/	4g\	8g\L	8b\L
!	!	!	!	!	!	!	!	!	!	!	!	!	!	!	!	!LO:TX:a:t=|:problem	!LO:TX:a:t=|:problem
.	.	.	.	.	.	.	.	.	.	.	.	.	.	.	.	16a\L	16cc\L
!	!	!	!	!	!	!	!	!	!	!	!	!	!	!	!	!LO:TX:a:t=|:problem	!LO:TX:a:t=|:problem
.	.	.	.	.	.	.	.	.	.	.	.	.	.	.	.	16b\JJ	16dd\JJ
!	!	!	!	!	!	!	!	!	!	!	!	!	!	!	!	!LO:TX:a:t=|:problem	!LO:TX:a:t=|:problem
4r	4r	4r	.	.	.	.	.	.	4r	.	.	.	.	4r	4r	16cc\LL	16ee\LL
!	!	!	!	!	!	!	!	!	!	!	!	!	!	!	!	!LO:TX:a:t=|:problem	!LO:TX:a:t=|:problem
.	.	.	.	.	.	.	.	.	.	.	.	.	.	.	.	16dd\	16ff#\
!	!	!	!	!	!	!	!	!	!	!	!	!	!	!	!	!LO:TX:a:t=|:problem	!LO:TX:a:t=|:problem
.	.	.	.	.	.	.	.	.	.	.	.	.	.	.	.	16ee\	16gg\
!	!	!	!	!	!	!	!	!	!	!	!	!	!	!	!	!LO:TX:a:t=|:problem	!LO:TX:a:t=|:problem
.	.	.	.	.	.	.	.	.	.	.	.	.	.	.	.	16ff#\JJ	16aa\JJ
!	!	!	!	!	!	!	!	!	!	!	!	!	!	!	!	!LO:TX:a:t=|:problem	!
4r	4r	4r	.	.	.	.	.	.	4r	.	4r	.	.	4r	4r	4gg\	4bb\
=23	=23	=23	=23	=23	=23	=23	=23	=23	=23	=23	=23	=23	=23	=23	=23	=23	=23
4C/	4a\	4cc\	2.ryy	2.ryy	2.ryy	2.ryy	2.ryy	.	8cc\L	za	8ee\L	za	2.ryy	4a\	4cc\	4cc\	4aa\
.	.	.	.	.	.	.	.	.	8a\J	.	8cc\J	.	.	.	.	.	.
4D/	4g\	4b\	.	.	.	.	.	.	4g\	.	4b\	Na-	.	4g\	4b\	4b\	4gg\
4DD/	4d\	4a\	.	.	.	.	.	.	4f#\	na-	4a\	.	.	4d\	4a\	4a/	4ff#\
=24	=24	=24	=24	=24	=24	=24	=24	=24	=24	=24	=24	=24	=24	=24	=24	=24	=24
!	!	!	!	!	!	!	!	!	!	!	!	!	!	!	!	!	!LO:N:vis=2.
2GG/	4B/	4g\	2.ryy	2.ryy	2.ryy	2.ryy	2.ryy	.	2g\	-mi	2g\	-mi	2.ryy	4b\	4g\	2b\	2gg\
.	4r	4r	.	.	.	.	.	.	.	.	.	.	.	4r	4r	.	.
4r	4r	4r	.	.	.	.	.	.	4r	.	4r	.	.	4r	4r	4r	4r
=25	=25	=25	=25	=25	=25	=25	=25	=25	=25	=25	=25	=25	=25	=25||	=25||	=25	=25
*	*	*	*	*2\right	*2\right	*2\right	*	*	*	*	*	*	*	*	*	*	*
2.C/	2.G/	2.g\	2.ryy	2.cc\	2.ee\	2.c\	2.G/	A-	2.g\	a-	2.ee\	A-	2.ryy	2G/	2g\	2.ee\	2.ccc\
.	.	.	.	.	.	.	.	.	.	.	.	.	.	4r	4r	.	.
=26	=26	=26	=26	=26	=26	=26	=26	=26	=26	=26	=26	=26	=26	=26||	=26||	=26	=26
2GG/	2G/	2g\	2.ryy	2b\	2dd\	2G\	2G/	-men	2g\	-men.	2dd\	-men.	2.ryy	2G/	2g\	2dd\	2bb\
!	!	!	!	!	!	!	!	!	!	!	!	!	!	!LO:TX:b:t=P. S. 1881.	!LO:TX:a:t=DP&colon;Szuberski 1881.	!	!
4r	4r	4r	.	4r	4r	4r	4r	.	4r	.	4r	.	.	4r	4r	4r	4r
==	==	==	==	==	==	==	==	==	==	==	==	==	==	==	==	==	==
*-	*-	*-	*-	*-	*-	*-	*-	*-	*-	*-	*-	*-	*-	*-	*-	*-	*-
!!!system-decoration: [(s1,s2)][(s3,s4)]s5[(s6,s7,s8,s9)][(s10,s11,s12,s13,s14)]s15
!!!cenid: 18xx:1038
!!!AIN: 1 alto 1 cor 6 empty 2 oboe 1 organ 1 soprn 1 tenor 2 violn
!!!ENC: Marcin Jachim
!!!END: 2020-10-05
!!!ENC: Leszek Kubiak
!!!END: 2021-11-19
